icons/playwright-light.svg

<svg width="256" height="256" viewBox="0 0 256 256" fill="none" xmlns="http://www.w3.org/2000/svg">
<rect width="256" height="256" rx="50" fill="#F4F2ED"/>
<path d="M103.878 172.836V158.363L63.6658 169.766C63.6658 169.766 66.6372 152.501 87.6087 146.552C93.9687 144.75 99.3952 144.762 103.878 145.628V86.2645H124.012C121.82 79.4903 119.699 74.2748 117.918 70.651C114.971 64.6529 111.951 68.629 105.093 74.3645C100.264 78.3994 88.0571 87.0071 69.6888 91.9568C51.3201 96.9097 36.4701 95.5961 30.2741 94.5232C21.4901 93.0078 16.8957 91.0787 17.3255 97.76C17.6996 103.653 19.1033 112.79 22.3188 124.857C29.2754 150.989 52.2662 201.343 95.7158 189.64C107.065 186.582 115.076 180.537 120.629 172.833H103.878V172.836ZM38.9899 125.215L69.8681 117.081C69.8681 117.081 68.9681 128.96 57.3925 132.012C45.8136 135.06 38.9899 125.215 38.9899 125.215Z" fill="#E2574C"/>
<path d="M220.088 86.951C212.062 88.3581 192.806 90.111 169.008 83.7323C145.204 77.3574 129.411 66.208 123.153 60.9674C114.283 53.5377 110.381 48.3743 106.541 56.1843C103.146 63.0729 98.8049 74.2839 94.6029 89.9781C85.4978 123.963 78.6927 195.681 134.979 210.773C191.254 225.852 221.213 160.336 230.319 126.347C234.521 110.656 236.364 98.7742 236.871 91.1129C237.449 82.4342 231.487 84.9536 220.088 86.951ZM106.998 115.068C106.998 115.068 115.869 101.272 130.913 105.548C145.967 109.825 147.133 126.468 147.133 126.468L106.998 115.068ZM143.723 176.976C117.26 169.225 113.179 148.123 113.179 148.123L184.266 167.997C184.266 167.994 169.917 184.631 143.723 176.976ZM168.856 133.61C168.856 133.61 177.715 119.823 192.756 124.112C207.798 128.394 208.982 145.037 208.982 145.037L168.856 133.61Z" fill="#2EAD33"/>
<path d="M89.8257 162.348L63.666 169.763C63.666 169.763 66.5076 153.574 85.7786 147.159L70.9657 91.5677L69.6857 91.9568C51.3172 96.9103 36.4671 95.5961 30.2711 94.5232C21.4873 93.0083 16.8928 91.0787 17.3226 97.7607C17.6967 103.654 19.1004 112.79 22.3158 124.857C29.2725 150.989 52.2633 201.343 95.7128 189.64L96.9928 189.238L89.8257 162.348ZM38.9901 125.216L69.8683 117.081C69.8683 117.081 68.9683 128.96 57.3926 132.012C45.8138 135.06 38.9901 125.216 38.9901 125.216Z" fill="#D65348"/>
<path d="M144.916 177.266L143.72 176.976C117.257 169.225 113.176 148.123 113.176 148.123L149.833 158.369L169.24 83.7942L169.005 83.7323C145.201 77.3574 129.408 66.208 123.15 60.9674C114.28 53.5377 110.378 48.3743 106.538 56.1843C103.146 63.0729 98.8049 74.2839 94.6029 89.9781C85.4978 123.963 78.6927 195.681 134.979 210.772L136.133 211.032L144.916 177.266ZM106.998 115.068C106.998 115.068 115.869 101.272 130.913 105.548C145.967 109.825 147.133 126.468 147.133 126.468L106.998 115.068Z" fill="#1D8D22"/>
<path d="M91.1588 161.968L84.1434 163.959C85.8008 173.303 88.7221 182.269 93.3072 190.19C94.1053 190.014 94.8969 189.863 95.7098 189.64C97.8401 189.065 99.8156 188.354 101.718 187.577C96.5943 179.975 93.2053 171.219 91.1588 161.968ZM88.4195 96.1619C84.8143 109.617 81.5892 128.985 82.4769 148.41C84.0659 147.721 85.7447 147.078 87.6092 146.549L88.9079 146.259C87.3247 125.509 90.7472 104.364 94.6027 89.978C95.5801 86.3387 96.5601 82.9535 97.5369 79.7968C95.9634 80.798 94.2692 81.8245 92.3395 82.8819C91.0382 86.8987 89.724 91.289 88.4195 96.1619Z" fill="#C04B41"/>
</svg>

<svg xmlns="http://www.w3.org/2000/svg" width="256" height="256" fill="none"><rect width="256" height="256" fill="#F4F2ED" rx="50"/><path fill="#E2574C" d="M103.878 172.836v-14.473l-40.212 11.403s2.971-17.265 23.943-23.214c6.36-1.802 11.786-1.79 16.269-.924V86.265h20.134c-2.192-6.775-4.313-11.99-6.094-15.614-2.947-5.998-5.967-2.022-12.825 3.714-4.829 4.034-17.036 12.642-35.404 17.592-18.369 4.953-33.219 3.64-39.415 2.566-8.784-1.515-13.378-3.444-12.948 3.237.374 5.893 1.777 15.03 4.993 27.097 6.956 26.132 29.947 76.486 73.397 64.783 11.349-3.058 19.36-9.103 24.913-16.807h-16.751zM38.99 125.215l30.878-8.134s-.9 11.879-12.475 14.931c-11.58 3.048-18.403-6.797-18.403-6.797"/><path fill="#2EAD33" d="M220.088 86.951c-8.026 1.407-27.282 3.16-51.08-3.219-23.804-6.375-39.597-17.524-45.855-22.765-8.87-7.43-12.772-12.593-16.612-4.783-3.395 6.889-7.736 18.1-11.938 33.794-9.105 33.985-15.91 105.703 40.376 120.795 56.275 15.079 86.234-50.437 95.34-84.426 4.202-15.691 6.045-27.573 6.552-35.234.578-8.679-5.384-6.16-16.783-4.162m-113.09 28.117s8.871-13.796 23.915-9.52c15.054 4.277 16.22 20.92 16.22 20.92zm36.725 61.908c-26.463-7.751-30.544-28.853-30.544-28.853l71.087 19.874c0-.003-14.349 16.634-40.543 8.979m25.133-43.366s8.859-13.787 23.9-9.498c15.042 4.282 16.226 20.925 16.226 20.925z"/><path fill="#D65348" d="m89.826 162.348-26.16 7.415s2.842-16.189 22.113-22.604L70.966 91.568l-1.28.389c-18.369 4.953-33.219 3.64-39.415 2.566-8.784-1.515-13.378-3.444-12.948 3.238.374 5.893 1.777 15.029 4.993 27.096 6.957 26.132 29.947 76.486 73.397 64.783l1.28-.402zM38.99 125.216l30.878-8.135s-.9 11.879-12.475 14.931c-11.58 3.048-18.403-6.796-18.403-6.796"/><path fill="#1D8D22" d="m144.916 177.266-1.196-.29c-26.463-7.751-30.544-28.853-30.544-28.853l36.657 10.246 19.407-74.575-.235-.062c-23.804-6.375-39.597-17.524-45.855-22.765-8.87-7.43-12.772-12.593-16.612-4.783-3.392 6.889-7.733 18.1-11.935 33.794-9.105 33.985-15.91 105.703 40.376 120.794l1.154.26zm-37.918-62.198s8.871-13.796 23.915-9.52c15.054 4.277 16.22 20.92 16.22 20.92z"/><path fill="#C04B41" d="m91.159 161.968-7.016 1.991c1.658 9.344 4.58 18.31 9.164 26.231.798-.176 1.59-.327 2.403-.55 2.13-.575 4.106-1.286 6.008-2.063-5.124-7.602-8.513-16.358-10.56-25.609m-2.74-65.806c-3.605 13.455-6.83 32.823-5.942 52.248 1.589-.689 3.268-1.332 5.132-1.861l1.299-.29c-1.583-20.75 1.84-41.895 5.695-56.281.977-3.64 1.957-7.024 2.934-10.181a91 91 0 0 1-5.198 3.085 267 267 0 0 0-3.92 13.28"/></svg>
